<?xml version="1.0" encoding="UTF-8"?>
<map version="1.10" tiledversion="1.11.2" orientation="orthogonal" renderorder="left-up" width="80" height="80" tilewidth="32" tileheight="32" infinite="0" nextlayerid="2" nextobjectid="1">
 <tileset firstgid="1" source="SpaceFondoMaterial.tsx"/>
 <layer id="1" name="Capa de patrones 1" width="80" height="80">
  <data encoding="csv">
1,1,1,1,1,1,1,1,1,1,1,1,1,1,1,1,1,1,1,1,1,1,1,1,1,1,1,1,1,1,1,1,1,1,1,1,1,1,1,1,1,1,1,1,1,1,1,1,1,1,5,13,13,13,6,1,1,1,1,1,1,1,1,1,1,1,1,1,1,1,1,1,1,1,1,1,1,1,1,1,
1,1,1,1,1,1,1,1,1,20,1,1,1,1,1,1,20,20,20,1,1,1,1,1,1,1,1,1,1,1,1,1,4,1,1,1,1,1,1,1,1,1,1,1,1,1,1,1,1,1,14,7,18,8,17,1,1,1,1,1,1,1,1,1,1,20,1,1,1,1,1,1,1,1,1,1,5,6,1,1,
1,1,20,1,1,1,1,1,1,20,1,1,1,1,1,1,1,1,20,20,20,1,1,1,1,1,1,1,1,1,1,1,4,1,1,1,1,1,1,1,1,1,1,1,1,1,4,1,1,1,14,11,6,14,11,6,1,1,1,19,1,1,1,1,1,1,1,5,13,13,13,6,1,1,1,1,9,10,1,1,
1,1,1,1,1,1,1,1,20,20,1,1,1,1,1,1,1,1,1,1,20,20,1,1,1,1,1,1,1,1,1,1,1,1,1,1,1,15,1,4,4,1,5,6,1,1,15,1,1,1,9,8,11,12,2,17,1,1,1,1,1,1,1,1,1,1,5,12,7,18,8,11,6,1,1,1,1,1,1,1,
1,1,1,1,1,1,1,1,20,1,1,1,1,5,13,13,13,6,1,1,1,20,20,20,1,1,1,1,1,1,1,1,1,1,1,1,1,1,1,1,1,1,9,10,1,1,1,1,1,1,1,9,18,18,8,17,1,1,1,1,1,1,1,1,1,5,12,2,11,6,9,8,11,6,1,1,1,1,1,1,
1,1,1,1,1,1,1,1,20,1,1,1,1,14,7,8,2,11,13,6,1,1,1,20,20,20,20,1,1,1,1,1,1,1,1,1,1,1,1,1,1,1,1,1,1,1,1,1,1,1,1,1,1,1,14,17,1,1,1,1,1,1,1,15,5,12,7,18,8,11,6,9,8,17,1,1,1,1,1,1,
1,1,1,5,6,1,1,20,1,1,1,1,5,12,17,9,8,2,2,11,6,1,1,1,1,1,20,1,1,1,1,5,6,1,1,1,1,1,1,1,1,15,1,1,1,1,1,1,1,1,1,1,1,1,14,17,1,1,1,1,1,1,1,5,12,7,10,1,9,8,11,13,12,17,1,1,1,1,1,1,
1,1,1,9,10,1,1,20,1,1,1,5,12,7,10,1,9,8,2,2,11,13,13,6,1,1,1,1,1,1,1,9,10,1,1,1,1,1,4,4,1,1,1,1,1,1,1,1,1,1,5,13,13,13,12,11,13,13,13,6,1,1,1,14,7,10,1,1,1,9,18,18,18,10,1,1,1,1,1,1,
15,1,1,1,1,1,20,20,1,1,1,14,2,17,1,1,1,9,8,2,7,18,8,17,1,1,1,1,1,1,1,1,1,1,1,1,1,5,6,1,1,1,1,4,1,1,15,1,1,5,12,2,2,7,18,18,8,2,2,11,13,13,13,12,17,1,1,1,1,1,19,1,1,1,1,1,1,1,1,1,
1,1,1,1,1,1,20,1,1,1,5,12,7,10,1,1,1,1,9,8,11,6,14,17,1,1,1,1,1,1,1,1,1,1,1,1,1,9,10,1,1,1,1,4,1,1,1,1,5,12,2,7,18,10,1,1,9,18,8,2,2,2,2,2,17,1,1,1,1,1,5,6,1,1,1,1,1,1,3,1,
1,1,1,1,1,1,20,1,1,1,14,2,17,1,1,1,1,1,1,9,8,11,12,11,6,1,1,1,1,1,1,1,1,1,1,1,1,1,1,1,1,1,1,1,1,1,1,1,14,2,2,11,13,13,13,13,6,1,9,18,18,18,8,2,11,13,13,6,1,1,9,10,1,1,1,1,1,1,3,1,
1,1,1,1,1,1,20,1,1,5,12,7,10,1,1,1,1,1,1,1,9,18,8,2,11,6,1,1,1,1,1,1,1,1,1,1,15,1,1,1,1,1,1,1,1,1,1,1,14,2,7,18,8,2,2,2,11,13,13,13,13,6,9,18,18,18,8,11,6,1,1,1,1,1,1,1,1,1,1,1,
1,1,1,1,1,1,15,1,1,14,2,17,1,1,1,1,1,1,1,1,1,1,9,18,8,11,13,6,1,1,1,1,1,1,15,1,1,1,1,1,1,1,1,20,1,1,1,1,14,2,17,1,9,18,18,18,8,2,2,2,2,11,13,13,13,6,9,8,11,13,6,1,1,1,1,1,1,1,1,1,
1,1,1,1,1,1,1,1,1,14,2,17,1,1,1,1,1,1,1,1,1,1,1,1,9,8,2,17,1,1,1,20,1,1,1,1,1,1,1,1,1,1,1,1,1,1,1,5,12,7,10,1,1,1,1,1,9,18,18,18,18,8,2,2,2,11,6,9,8,2,17,1,1,1,1,1,1,1,1,1,
1,1,1,1,1,20,1,1,1,14,2,17,1,1,1,1,20,1,1,1,1,1,1,1,1,14,2,17,1,1,1,20,1,1,1,1,1,1,1,1,1,1,1,1,1,1,1,14,2,17,1,1,1,1,1,1,1,1,1,1,1,9,18,18,18,8,11,13,12,2,11,6,1,1,1,1,1,1,1,1,
1,5,6,1,1,1,1,1,1,14,2,17,1,1,1,1,1,1,20,1,1,1,1,1,1,14,2,17,1,1,1,20,1,1,1,1,1,1,1,1,3,1,1,1,1,1,1,14,2,17,1,1,1,5,13,13,13,13,13,6,1,1,1,1,1,9,18,8,2,2,2,17,1,1,3,1,1,1,1,1,
1,9,10,1,1,1,1,1,1,9,8,11,6,1,1,1,1,1,1,1,1,1,1,1,1,14,2,17,1,1,1,20,1,1,3,1,1,1,1,5,6,1,1,1,1,1,5,12,2,17,1,1,1,9,8,7,18,18,18,10,1,1,1,1,1,1,1,14,2,2,2,11,6,1,1,1,1,1,1,1,
1,1,1,1,1,1,1,1,1,1,14,2,17,1,1,1,1,1,1,1,1,1,1,1,1,9,8,17,1,1,1,20,1,1,1,1,1,1,1,9,10,1,1,1,1,1,14,2,2,17,1,1,1,1,14,11,6,1,1,1,1,1,1,1,1,1,1,14,2,7,8,2,17,1,1,1,5,6,1,1,
1,1,1,1,1,1,1,1,1,1,14,2,17,1,1,1,1,1,1,1,1,1,1,1,1,1,14,11,6,1,1,20,1,1,1,1,1,1,1,1,1,1,1,1,1,1,14,2,2,17,1,1,1,1,9,8,11,6,1,1,1,1,1,1,1,1,1,14,2,17,14,2,17,1,3,1,9,10,1,1,
1,1,15,1,1,1,1,1,1,1,14,2,17,1,1,1,1,3,1,1,1,1,1,1,1,1,14,2,17,1,1,1,20,1,1,1,1,1,1,1,1,1,1,1,1,5,12,2,7,10,1,1,1,1,1,9,8,11,6,1,1,1,1,1,1,1,5,12,2,17,14,2,17,1,1,1,1,1,1,1,
4,1,1,1,1,1,1,1,1,1,14,2,17,1,1,1,1,1,1,1,1,1,1,1,1,1,14,2,17,1,1,1,20,1,1,1,1,1,1,1,1,1,1,1,1,14,2,2,11,6,1,1,1,1,1,1,9,8,11,6,1,5,13,6,1,1,14,2,7,10,14,7,10,1,1,1,1,1,1,1,
1,1,1,1,1,20,1,1,1,1,14,2,17,1,1,1,1,1,1,1,1,1,1,1,1,1,14,2,17,1,1,1,20,1,1,1,1,1,1,1,1,1,1,1,1,9,8,2,2,11,13,13,6,1,1,1,5,12,2,11,13,12,7,10,1,1,14,7,10,1,14,17,1,1,1,20,1,1,1,1,
1,1,1,1,1,1,1,1,1,1,14,2,17,1,1,1,1,1,1,1,1,1,1,1,1,5,12,7,10,1,1,1,1,1,1,1,1,1,1,1,1,1,1,1,1,1,9,8,2,2,2,2,11,13,6,1,9,18,8,2,2,7,10,1,1,1,14,17,1,5,12,17,1,3,1,1,1,1,1,1,
1,1,1,1,5,6,1,1,1,1,14,2,11,13,6,1,1,1,1,1,1,1,1,20,1,14,2,17,1,1,1,1,1,15,1,1,1,20,1,1,1,1,1,1,1,1,1,9,18,18,8,2,2,2,11,13,6,1,9,18,18,10,1,1,1,5,12,17,5,12,7,10,1,1,1,1,1,1,1,1,
1,1,1,1,9,10,1,1,1,1,9,18,8,2,11,13,6,1,1,1,1,1,1,1,5,12,2,17,1,1,1,1,1,1,1,1,1,1,1,1,1,1,1,1,1,1,1,1,1,1,9,18,18,18,8,2,11,13,13,6,1,1,1,1,1,14,2,11,12,7,10,1,1,1,1,1,1,1,1,1,
1,1,1,1,1,1,1,1,1,1,1,1,9,18,8,2,11,6,1,1,1,1,1,5,12,2,2,17,1,1,1,1,1,1,1,1,1,1,1,1,1,1,1,1,4,1,1,1,1,1,1,1,1,1,9,18,8,2,2,11,13,13,6,1,5,12,2,2,7,10,1,1,1,1,1,1,1,3,1,1,
1,1,1,1,1,1,1,1,1,15,15,15,1,1,9,18,8,11,6,1,1,1,1,14,2,2,7,10,1,1,1,1,1,1,1,1,1,1,1,1,1,1,1,1,1,1,1,1,1,1,1,1,1,1,1,1,9,18,18,8,2,2,11,13,12,2,2,2,17,1,1,1,1,1,1,1,1,1,1,1,
1,1,19,19,1,1,1,1,1,1,1,15,15,15,1,1,9,8,11,13,6,1,1,14,2,2,17,1,1,1,1,1,1,4,1,4,1,1,1,5,6,1,1,1,1,1,1,1,19,1,1,1,1,1,1,1,1,1,1,9,18,18,18,8,2,2,2,7,10,1,1,1,1,1,1,1,1,1,1,1,
1,1,1,19,1,1,16,1,1,1,1,1,1,15,15,15,1,9,8,2,11,6,5,12,2,2,17,1,1,1,1,1,1,1,1,1,1,1,1,9,10,1,1,1,1,1,1,1,1,1,1,1,1,1,1,1,1,1,1,1,1,1,3,9,18,18,18,10,1,1,1,1,1,1,1,1,1,1,1,1,
1,1,1,19,4,1,16,16,16,1,1,1,1,1,1,15,15,1,9,18,8,11,12,2,2,7,10,1,1,1,1,1,1,1,1,1,1,1,1,1,1,1,1,1,1,1,1,1,1,1,1,1,1,1,1,1,15,1,1,1,1,1,1,1,1,1,1,1,1,1,1,1,1,20,1,1,1,1,1,1,
1,1,1,1,4,4,1,1,1,1,1,1,1,1,1,1,15,15,1,1,9,8,2,2,7,10,1,20,1,1,1,1,1,1,1,1,1,1,1,1,4,4,1,1,1,1,1,1,1,1,1,1,1,1,1,1,1,1,5,6,1,1,1,1,1,1,1,1,1,1,1,1,1,1,1,1,1,1,1,1,
1,1,1,1,1,4,4,19,1,1,1,1,1,1,1,1,1,1,1,1,1,9,8,7,10,1,1,1,1,1,1,1,1,1,1,1,1,1,1,1,1,1,1,1,3,1,1,1,1,1,1,1,1,1,1,1,1,1,9,10,1,1,1,1,1,1,1,1,1,1,1,1,1,1,1,1,1,1,1,1,
1,1,1,1,1,1,4,19,4,1,1,1,1,19,1,1,1,1,1,1,1,1,9,10,1,1,1,1,1,1,1,1,19,1,1,1,1,1,1,1,1,1,1,1,1,1,1,1,1,1,1,1,1,1,1,1,1,1,1,1,1,1,1,1,1,1,1,1,19,1,1,1,5,6,1,1,1,1,1,1,
1,1,1,1,1,1,1,1,1,19,19,1,1,1,1,1,16,1,1,1,1,1,1,1,1,1,1,1,1,1,1,1,1,1,1,1,3,1,1,1,1,1,1,1,1,1,1,1,1,1,3,1,3,1,1,1,1,1,1,1,1,1,1,1,1,1,1,3,3,1,1,1,9,10,1,1,1,1,1,1,
1,1,1,1,1,1,1,1,1,1,19,19,19,19,1,1,16,16,16,1,1,1,1,1,1,1,1,1,1,1,1,1,1,1,1,1,1,1,1,1,1,1,1,1,1,1,1,1,1,1,1,1,1,1,1,1,1,1,1,1,1,1,1,1,1,1,3,3,1,1,1,1,1,1,1,1,1,20,1,1,
1,19,19,19,19,19,19,19,19,19,19,16,16,19,19,1,1,1,1,16,16,1,1,1,1,1,1,1,1,1,1,1,1,1,1,1,4,1,1,1,1,4,1,1,1,1,1,1,1,1,1,1,1,19,1,1,1,1,1,1,1,1,19,1,3,3,1,1,1,1,1,1,1,1,19,1,1,1,1,1,
19,19,1,1,1,1,1,1,4,4,19,4,16,16,16,16,19,19,19,1,16,16,1,1,1,3,1,1,1,1,1,1,1,1,1,1,4,1,1,1,1,1,1,1,1,1,1,4,1,1,1,1,1,1,1,1,1,1,1,1,1,1,1,3,3,1,1,1,1,1,1,1,1,1,1,1,1,1,1,1,
1,1,1,1,1,1,1,1,1,1,1,4,1,1,1,1,1,19,19,19,19,19,19,19,1,1,1,1,1,1,1,1,1,1,1,1,1,1,1,1,1,1,1,1,1,1,1,1,1,1,1,1,1,1,1,1,1,1,1,1,1,3,3,3,1,1,1,1,1,1,1,1,1,1,1,1,1,1,1,1,
1,1,1,1,1,1,1,1,1,1,1,1,1,1,1,1,1,1,1,1,1,19,19,19,19,19,19,19,19,1,1,5,13,13,13,13,13,13,13,13,13,13,6,1,1,1,1,1,1,1,1,4,1,1,1,1,1,1,1,3,3,3,1,1,1,1,1,5,13,13,13,13,13,13,6,1,1,1,1,1,
1,1,1,4,1,19,19,19,16,16,16,16,16,16,16,4,4,4,16,19,19,19,19,16,16,19,16,19,19,1,1,14,2,7,18,18,18,18,18,18,8,2,11,13,13,13,6,1,1,1,1,1,1,1,1,1,1,3,3,3,20,1,1,1,1,1,5,12,7,18,18,18,18,8,11,13,6,1,1,1,
1,5,6,1,1,1,19,19,19,19,19,19,19,19,19,19,19,4,4,4,16,16,16,4,4,16,16,1,20,19,19,14,2,17,1,1,1,1,1,1,14,2,2,2,2,2,11,13,13,6,1,1,1,1,1,1,1,1,1,1,1,1,1,1,1,5,12,7,10,1,1,1,1,9,8,7,10,1,1,1,
1,9,10,1,1,1,1,1,1,1,1,1,1,19,1,1,1,1,1,1,1,1,1,1,4,1,1,19,19,19,19,14,2,17,1,1,1,1,1,1,9,18,18,18,8,2,2,2,2,11,13,13,6,1,1,1,3,1,1,1,1,1,1,1,5,12,7,10,1,1,1,1,1,5,12,17,1,1,1,1,
1,1,1,1,1,1,1,1,1,1,1,1,1,1,1,1,1,1,1,1,1,1,1,1,1,1,1,1,1,1,19,14,2,17,1,1,1,1,1,1,1,1,1,1,9,18,18,8,2,2,2,2,11,13,13,13,13,6,1,1,1,1,1,5,12,7,10,1,1,1,5,13,13,12,7,10,1,1,1,1,
1,1,1,1,1,1,1,1,20,1,3,1,1,1,1,1,1,1,1,1,1,1,1,1,1,1,1,1,1,1,1,14,2,11,13,6,1,1,1,1,1,1,1,1,1,1,1,9,18,18,8,2,2,2,2,2,2,11,13,13,13,13,13,12,7,10,1,1,1,5,12,7,18,18,10,1,1,1,1,1,
1,1,1,1,5,6,1,1,1,1,1,1,1,1,1,1,1,1,1,1,1,1,20,1,1,1,1,1,1,1,1,9,18,8,2,11,13,6,1,1,1,15,1,1,1,1,1,1,1,1,9,18,18,18,18,8,2,2,2,2,2,2,2,7,10,1,1,1,1,14,7,10,1,1,1,1,1,1,1,1,
1,1,1,1,9,10,1,1,1,1,1,1,1,1,1,1,3,1,1,1,1,1,1,1,1,1,1,1,4,4,4,1,1,9,18,8,2,11,13,6,1,1,1,1,1,1,1,1,1,1,1,1,1,1,1,9,18,18,18,18,8,2,7,10,1,1,1,1,1,14,17,1,1,1,1,1,1,1,1,1,
1,1,1,1,1,1,1,1,1,1,1,1,1,1,1,1,1,1,1,1,1,5,6,1,1,1,1,1,1,1,4,4,1,1,1,9,18,8,2,11,13,13,6,1,1,1,1,1,1,1,1,1,1,1,1,1,20,1,1,1,9,18,10,1,1,1,1,1,1,14,11,6,1,1,1,1,1,1,1,1,
1,1,1,4,1,1,1,1,1,1,1,1,1,1,1,1,1,1,1,1,1,9,10,1,1,1,1,1,1,1,1,4,1,1,1,1,1,9,18,18,18,8,11,13,13,6,1,1,1,1,1,1,1,1,15,1,1,1,1,1,1,1,15,1,1,1,1,1,1,9,8,11,6,1,1,1,1,20,1,1,
1,1,1,1,1,4,1,1,4,4,1,5,6,1,1,1,4,1,1,1,1,1,1,1,1,1,1,1,1,1,1,1,4,1,1,1,1,1,1,1,1,9,18,18,8,11,13,6,1,1,1,1,1,1,1,1,1,1,1,1,1,1,1,1,1,1,1,1,1,1,9,8,17,1,1,1,1,1,1,1,
1,1,1,5,13,13,13,13,6,1,1,9,10,1,1,1,1,1,1,1,1,1,19,19,1,1,1,1,1,1,1,1,4,4,1,1,1,1,1,1,1,1,1,1,9,18,8,11,13,6,1,1,1,1,1,1,1,1,1,1,1,1,1,1,1,1,1,1,15,1,1,14,11,6,1,1,1,1,1,1,
1,1,1,14,2,7,18,8,11,13,13,13,6,1,1,1,1,1,1,1,1,1,1,1,1,1,1,1,3,1,1,1,1,4,1,1,1,1,1,1,1,1,1,1,1,1,9,18,8,11,13,13,13,13,13,6,1,1,1,1,1,1,1,1,1,1,1,1,1,1,1,9,8,17,1,1,1,1,3,1,
1,1,1,14,2,17,1,9,18,18,18,8,11,13,6,1,1,1,3,1,1,1,1,1,1,1,1,1,1,1,1,1,1,1,4,1,1,1,1,1,1,1,1,1,1,1,1,1,9,8,7,18,18,8,2,11,6,1,1,1,1,1,1,1,1,1,1,1,1,1,1,1,14,17,1,1,1,1,19,1,
1,1,1,14,2,17,1,1,1,1,1,9,18,8,11,6,1,1,1,1,1,5,13,13,13,6,1,1,1,1,1,1,1,1,4,4,1,1,1,4,1,1,1,1,1,1,1,1,1,14,11,6,1,9,8,2,11,13,13,6,1,1,1,1,15,1,1,1,1,1,1,1,14,17,1,20,1,1,1,1,
1,1,1,14,2,17,1,1,1,1,1,1,1,9,8,11,6,5,13,13,13,12,2,2,2,11,13,13,6,1,1,1,1,1,1,4,4,1,1,1,1,1,1,1,1,1,1,1,1,9,8,17,1,1,9,18,18,18,8,11,13,13,6,1,1,1,1,1,1,1,1,1,14,17,1,1,1,1,1,1,
1,1,1,9,8,11,6,1,1,1,1,5,13,13,12,2,11,12,2,2,7,18,18,18,18,18,18,8,11,13,13,13,6,1,1,4,4,1,1,1,1,1,1,1,1,1,1,1,1,1,14,11,6,1,1,1,1,1,9,18,18,8,11,6,1,1,1,1,1,1,1,1,14,17,1,1,1,1,1,1,
1,1,1,1,9,8,11,13,13,13,13,12,2,2,7,8,2,2,2,7,10,1,1,1,1,1,1,9,18,18,8,2,11,13,6,1,1,1,1,1,1,1,20,5,6,1,1,1,1,5,12,2,11,6,1,1,1,1,1,1,1,9,8,11,6,1,1,1,1,20,1,1,14,17,1,1,1,1,1,1,
1,1,1,1,1,9,8,2,7,18,18,18,18,18,10,9,18,18,8,11,13,6,1,1,15,1,1,1,1,5,12,2,2,2,11,6,1,1,1,1,1,1,1,9,10,1,1,1,1,14,2,2,2,17,1,1,1,1,1,1,1,1,9,8,17,1,1,1,1,1,1,1,14,17,1,1,1,1,1,1,
1,1,1,1,1,1,9,8,11,13,6,1,1,1,1,1,1,1,9,8,2,11,13,6,1,1,5,13,13,12,2,2,2,2,2,17,1,1,1,1,1,1,1,1,1,1,1,1,1,14,2,7,8,11,13,13,13,6,1,1,1,1,5,12,17,1,1,1,1,1,1,5,12,17,1,1,1,1,1,1,
1,1,1,1,1,1,1,9,18,8,11,6,1,15,1,1,1,5,6,9,8,2,2,11,6,5,12,2,2,2,2,7,18,18,18,10,1,1,1,1,1,1,1,1,1,1,1,1,1,14,2,17,9,18,18,18,8,11,13,13,13,13,12,7,10,1,1,1,1,1,1,14,7,10,1,1,3,1,1,1,
1,1,15,1,1,1,1,1,1,9,8,11,6,1,1,1,1,14,11,13,12,2,2,2,11,12,2,2,7,18,18,10,1,1,1,1,1,5,6,1,1,1,1,1,1,1,1,1,1,14,2,17,1,1,1,1,9,8,2,2,2,2,2,17,1,1,1,1,1,1,1,14,17,1,1,5,6,1,1,1,
1,20,1,1,1,1,1,1,1,1,9,8,11,6,15,1,1,9,8,7,18,18,18,18,8,2,7,18,10,1,1,1,1,1,1,1,1,9,10,1,1,1,1,1,3,1,1,1,5,12,2,11,13,6,1,1,1,9,18,18,18,8,7,10,1,1,1,1,1,1,1,14,17,1,1,9,10,1,1,1,
1,1,1,1,1,1,1,1,1,1,1,9,8,11,13,13,6,1,14,17,1,1,1,1,14,2,17,1,1,1,1,1,1,1,1,1,1,1,1,1,3,1,1,1,1,1,1,1,14,2,7,18,8,11,13,13,13,13,6,1,1,14,17,1,1,1,1,1,1,1,1,14,17,1,1,1,1,1,1,1,
1,1,1,1,5,6,1,1,1,1,1,1,9,8,2,2,11,6,14,17,1,1,1,1,14,2,11,6,1,3,1,1,1,1,1,1,1,1,1,1,1,1,4,4,1,1,1,1,14,2,17,1,9,18,18,18,18,8,11,13,13,12,17,1,1,1,1,1,1,1,5,12,17,1,1,1,1,1,3,1,
1,1,1,1,9,10,1,1,1,1,1,1,1,14,2,2,2,11,12,17,1,1,1,1,9,8,2,17,1,1,1,1,1,1,1,1,1,1,1,1,1,1,1,1,1,1,1,1,14,2,17,1,1,1,1,1,1,9,8,7,18,18,10,1,1,1,15,1,1,1,14,7,10,1,1,1,1,1,1,1,
1,1,1,1,1,1,1,1,1,1,1,1,1,14,2,7,8,2,2,11,13,13,13,6,1,9,8,11,6,1,1,1,1,1,1,1,1,1,1,1,5,6,1,1,1,1,1,1,14,2,11,6,1,1,1,1,5,13,12,17,1,1,1,1,1,1,1,1,1,5,12,17,1,1,1,3,1,1,1,1,
1,1,1,1,1,1,1,1,1,1,1,1,1,14,2,17,9,8,7,8,2,2,2,11,13,6,14,2,17,3,1,1,1,1,1,1,1,1,1,1,9,10,1,1,1,1,1,1,9,8,2,11,13,13,6,5,12,2,7,10,1,1,1,1,19,1,1,1,1,14,7,10,1,1,1,1,1,1,1,1,
1,1,1,1,1,1,3,1,1,20,1,1,1,9,8,11,6,14,17,9,18,18,8,2,2,11,12,2,17,3,3,1,1,20,1,1,1,1,1,1,1,1,1,20,1,1,1,1,3,9,18,18,8,2,11,12,2,2,17,1,1,1,1,1,1,1,1,5,13,12,17,1,1,1,1,1,1,1,1,1,
1,1,1,1,3,1,1,1,1,1,1,4,1,1,14,2,17,14,17,1,1,1,9,18,8,2,2,2,17,20,3,15,1,1,1,1,1,1,1,1,1,1,1,1,1,1,1,1,3,1,1,1,9,18,18,18,18,8,11,13,13,13,13,6,1,1,5,12,7,18,10,1,1,1,1,1,1,1,1,1,
1,16,1,1,1,1,1,1,1,1,1,4,1,1,9,8,11,12,17,1,1,1,3,3,9,18,8,2,17,20,20,15,15,1,1,1,5,6,1,1,1,1,1,1,1,1,1,1,1,1,1,1,1,1,1,1,1,9,18,18,18,8,2,11,13,13,12,7,10,1,1,1,1,1,1,1,1,1,1,1,
1,1,4,1,1,4,1,1,1,1,1,4,1,1,1,14,2,2,17,1,1,1,1,1,3,3,9,18,10,20,20,20,3,15,1,1,9,10,1,3,3,1,1,1,1,1,1,1,1,1,1,1,1,1,1,3,1,1,1,1,1,9,18,18,8,2,2,17,15,1,1,1,1,3,1,1,1,1,1,1,
1,1,1,1,1,1,1,16,1,1,1,4,1,1,1,9,8,2,11,6,1,1,1,1,1,1,3,15,15,15,20,20,20,3,15,15,1,1,1,1,3,5,6,1,1,1,1,1,1,1,1,1,1,1,1,3,3,3,1,1,1,1,1,1,9,18,18,10,1,1,1,1,1,1,1,5,6,1,1,1,
1,1,1,1,1,1,1,1,1,1,1,4,1,1,1,1,9,8,2,11,6,1,1,1,1,1,1,1,3,15,15,20,20,20,20,15,15,1,1,1,1,9,10,1,1,1,1,1,1,1,1,1,1,1,1,1,1,3,3,3,1,1,1,1,1,1,1,1,1,1,1,1,1,15,3,9,10,1,1,1,
1,1,1,1,1,1,5,6,1,1,1,4,4,1,1,1,1,9,8,2,17,1,1,1,1,1,5,6,1,3,3,15,20,20,20,20,15,15,1,1,1,1,1,1,1,1,1,1,1,1,1,1,15,1,1,1,1,1,19,3,3,3,1,1,1,1,1,1,1,1,1,1,1,1,1,1,1,1,1,1,
1,1,1,1,3,1,9,10,1,1,1,1,4,4,1,1,1,1,9,18,10,1,19,1,1,1,9,10,1,1,3,3,3,3,20,20,3,15,1,1,1,1,1,1,1,1,1,1,1,1,1,1,1,19,1,5,6,1,1,1,1,3,3,1,1,1,1,1,1,3,1,1,1,1,1,1,1,1,1,1,
1,1,1,1,1,1,1,1,4,1,1,1,1,3,1,1,1,5,6,1,1,1,1,1,1,1,1,1,1,1,1,1,1,3,3,20,20,16,15,1,1,1,1,1,20,1,1,1,1,3,1,1,1,1,1,9,10,1,1,1,1,1,1,1,1,1,1,1,20,1,1,1,1,1,1,1,1,1,1,1,
1,1,1,1,1,1,1,1,1,1,1,1,1,1,1,1,1,9,10,1,1,1,1,1,1,1,1,1,1,1,1,1,1,1,1,3,3,15,15,15,1,1,1,1,1,1,1,1,1,1,1,1,1,1,1,1,1,1,1,1,1,1,1,1,1,1,1,1,1,1,1,1,1,1,1,1,1,20,15,1,
1,1,1,1,1,1,16,1,1,1,1,1,1,1,1,1,1,1,1,1,1,1,1,1,4,4,1,1,1,1,1,1,1,1,5,6,3,3,3,15,15,1,1,1,1,1,1,1,1,1,1,1,1,1,1,1,1,1,1,1,1,1,15,1,5,6,1,1,1,1,1,1,1,1,1,1,1,1,1,1,
1,1,1,1,1,1,1,1,1,1,15,1,1,1,1,1,16,1,1,1,1,1,1,1,1,1,1,1,1,1,1,3,1,1,9,10,1,3,3,3,3,15,15,1,1,1,1,1,1,1,1,1,1,1,1,1,1,1,1,15,1,1,1,1,9,10,1,1,1,1,1,1,1,1,1,1,1,1,1,1,
1,1,20,1,1,1,1,1,1,1,1,1,1,1,1,1,1,1,1,1,1,1,1,1,1,19,1,1,1,1,1,1,1,1,1,1,1,1,3,3,3,3,15,15,15,1,1,1,1,1,1,1,1,1,1,19,1,1,1,1,1,1,1,1,1,1,1,1,1,1,1,1,1,3,3,1,1,1,1,1,
1,1,1,1,1,1,1,1,1,1,1,1,1,1,1,1,1,1,1,1,1,1,1,1,1,1,1,1,1,1,1,1,1,1,1,1,1,1,1,1,3,3,3,1,15,15,1,1,1,1,1,1,1,1,1,1,1,1,1,1,1,1,1,1,1,1,1,1,1,1,1,1,1,1,1,1,1,1,1,1
</data>
 </layer>
</map>
